X:1
T:Requiem aeternam - Pitoni
T:James Gibb editions 
T:#
%%score { 1 | 2 } 3
L:1/8
Q:1/4=60
M:4/4
K:C
V:1 treble nm="Soprano I" snm="S"
V:2 treble 
V:3 treble nm="Alto" snm="A"
V:1
"^Requiem aeternam""^Giuseppe Ottavio Pitoni\n(1657-1743)""^adagio"!p!!>(! !>!f3 e!>)! e4 | %1
w: Re- qui- em|
 z2 (^G4 ^FE | A4 D2) d2- | d2 c2 B4 | A2!f! !>!A3 GGG |[M:4/4] G3 ^F F4 | z4 z2!f! !>!e2- | %7
w: ae\- * *|* * ter\-||nam do- na e- is|Do- mi- ne|do\-|
 edd"^,"d (d2 A2- | A2 G^F G4- | G2) ^F2 F4 | z2!p! B2 c4 | z AFD _B3 B |"^," G4 A4- | A2 GF (G4- | %14
w: * na e- is Do\- *||* mi- ne:|Et lux,|Et lux per- pe- tu-|a lu\-|* ce- at e\-|
 G4 F4 | E8) | !fermata!D8 |] %17
w: ||is.|
V:2
 z4!p! A3 ^G | ^G4 z2 (e2- | e2 dc f4) | (^G2 A4 G2) | A4 z4 |[M:4/4] z8 | z2!f! !>!A3 GGG | %7
w: Re- qui-|em ae\-||ter\- * *|nam||do- na e- is|
 G3 ^F"^," F4 | _B6 B2 | A4 z2 ^F2 | G4 z!p! GEC | A3 A =F4 | E6 DC | D8 | ^C4 D4- | D4 ^C4 | %16
w: Do- mi- ne,|Do- mi-|ne: Et|lux, Et lux per-|pe- tu- a|lu- ce- at|e\-|||
 !fermata!D8 |] %17
w: is.|
V:3
!p!!>(! !>!D3 ^C!>)! C4 | z2 (E4 D=C) | (F6 ED | E8) | A,4 z4 |[M:4/4] z2!f! !>!E3 DDD | D3 ^C C4 | %7
w: Re- qui- em|ae\- * *|ter\- * *||nam|do- na e- is|Do- mi- ne,|
 D8 | G,8 | D4 z2 D2 | E4 z!p! ECA, | F3 F D4- | D4 C4- | C2 _B,A, (B,4 | A,8- | A,8) | %16
w: Do-|mi-|ne: Et|lux, Et lux per-|pe- tu- a|* lu\-|* ce- at e\-|||
 !fermata!D8 |] %17
w: is.|

